!!!!SEGMENT: pl-cz--d-ii-40--001_elsner-jozef--requiem-in-c-op-42-requiem.krn
!!!cenid: 18xx:30
!!!COM: Elsner, Józef
!!!COM-rismID: pe30000957
!!!CDT: 1769/06/01-1854/04/18
!!!CNT: Polish
!!!OPR: Requiem in C op. 42
!!!OTL: Requiem
!!!OMV: 001
!!!PDT:
!!!AGN: Sacred; Requiem
!!!SMS-siglum: PL-CZ
!!!SMS-shelfmark: III-186
!!!SMS-shelfwork: 001-001 M
!!!NIFC-rismSourceID:
!!!NIFC-islandoraID: pl-cz:35407
!!!URL-pdf-islandora: https://repozytorium.nifc.pl/islandora/object/pl-cz%3A35407/datastream/PDF/view
!!!URL-scan:
!!!ONB-nifc:
!!!AIN: 1 bass 2 cello 1 cor 2 empty 2 fagot 2 tenor 1 timpa 3 tromt
!!!key:
**kern	**dynam	**kern	**dynam	**kern	**dynam	**kern	**text	**dynam	**kern	**text	**dynam	**kern	**text	**dynam	**kern	**dynam	**kern	**dynam	**kern	**dynam	**kern	**dynam	**kern	**dynam	**kern	**dynam
*part12	*part12	*part11	*part11	*part10	*part10	*part9	*part9	*part9	*part8	*part8	*part8	*part7	*part7	*part7	*part6	*part6	*part5	*	*part4	*	*part3	*	*part2	*	*part1	*
*staff12	*	*staff11	*	*staff10	*	*staff9	*staff9	*	*staff8	*staff8	*	*staff7	*staff7	*	*staff6	*	*staff5	*	*staff4	*	*staff3	*	*staff2	*	*staff1	*
*Iempty	*	*Icello&Ifagot	*	*Icello&Ifagot	*	*Ibass	*	*	*Itenor	*	*	*Itenor	*	*	*Itimpa	*	*Itromt	*	*Itromt	*	*Itromt	*	*Iempty	*	*Icor	*
*I"Bassi	*	*I"Violoncello II con Fagotto	*	*I"Violoncello I con Fagotto	*	*I"Basso	*	*	*I"Tenore II	*	*	*I"Tenore I	*	*	*I"Tympani	*	*I"Trombone 3	*	*I"Trombone 2	*	*I"Trombone 1	*	*I"Clari in C	*	*I"Corni in F	*
*I'Cb	*	*I'Vc II con Fg	*	*I'Vc I con. Fg	*	*I'B	*	*	*I'T II	*	*	*I'T I	*	*	*I'Timp	*	*I'Tbn III	*	*I'Tbn II	*	*I'Tbn I	*	*I'Clni	*	*I'Cor	*
*clefF4	*	*clefF4	*	*clefC4	*	*clefF4	*	*	*clefC4	*	*	*clefC4	*	*	*clefF4	*	*clefF4	*	*clefC4	*	*clefC4	*	*clefG2	*	*clefG2	*
*	*	*	*	*	*	*	*	*	*	*	*	*	*	*	*	*	*	*	*	*	*	*	*	*	*ITrd4c7	*
*k[b-e-a-]	*	*k[b-e-a-]	*	*k[b-e-a-]	*	*k[b-e-a-]	*	*	*k[b-e-a-]	*	*	*k[b-e-a-]	*	*	*k[b-e-a-]	*	*k[b-e-a-]	*	*k[b-e-a-]	*	*k[b-e-a-]	*	*k[b-e-a-]	*	*k[b-e-a-]	*
*c:	*	*c:	*	*c:	*	*c:	*	*	*c:	*	*	*c:	*	*	*c:	*	*c:	*	*c:	*	*c:	*	*c:	*	*c:	*
*M2/2	*	*M2/2	*	*M2/2	*	*M2/2	*	*	*M2/2	*	*	*M2/2	*	*	*M2/2	*	*M2/2	*	*M2/2	*	*M2/2	*	*M2/2	*	*M2/2	*
*met(c|)	*	*met(c|)	*	*met(c|)	*	*met(c|)	*	*	*met(c|)	*	*	*met(c|)	*	*	*met(c|)	*	*met(c|)	*	*met(c|)	*	*met(c|)	*	*met(c|)	*	*met(c|)	*
=1	=1	=1	=1	=1	=1	=1	=1	=1	=1	=1	=1	=1	=1	=1	=1	=1	=1	=1	=1	=1	=1	=1	=1	=1	=1	=1
!	!	!	!	!	!	!	!	!	!	!	!LO:DY:b	!LO:TX:a:i:t=Adagio	!	!	!	!	!	!	!	!	!	!	!	!	!LO:TX:a:t=Adagio	!
*	*	*	*	*	*	*	*	*	*	*	*	*	*	*	*	*	*	*	*	*	*	*	*	*	*	*
!	!	!	!	!	!LO:DY:b	!	!	!	!	!	!LO:DY:rj	!	!	!	!LO:TX:t=19.	!LO:TX:t=19.	!LO:TX:t=19.	!	!LO:TX:t=19.	!	!LO:TX:t=19.	!	!LO:TX:t=19.	!	!LO:TX:t=19.	!
2r	.	[1c\	.	2r	p	2r	.	.	[1c\	Re-	p	2r	.	.	1r	.	1r	.	1r	.	1r	.	1r	.	1r	.
!	!	!	!	!	!	!	!	!LO:DY:b	!	!	!	!	!	!LO:DY:b	!	!	!	!	!	!	!	!	!	!	!	!
.	.	.	.	.	.	.	.	p	.	.	.	.	.	p	.	.	.	.	.	.	.	.	.	.	.	.
!	!LO:DY:b	!	!	!	!	!	!	!	!	!	!	!	!	!	!	!	!	!	!	!	!	!	!	!	!	!
[2C/	p	.	.	[2e-\	.	[2C/	Re-	.	.	.	.	(>2e-\	Re-	.	.	.	.	.	.	.	.	.	.	.	.	.
!	!LO:HP:b	!	!	!	!	!	!	!	!	!	!	!	!	!	!	!	!	!	!	!	!	!	!	!	!	!
.	>	.	.	.	.	.	.	.	.	.	.	.	.	.	.	.	.	.	.	.	.	.	.	.	.	.
=2	=2	=2	=2	=2	=2	=2	=2	=2	=2	=2	=2	=2	=2	=2	=2	=2	=2	=2	=2	=2	=2	=2	=2	=2	=2	=2
!	!	!	!	!	!LO:HP:b	!	!	!	!	!	!	!	!	!LO:DY:a	!	!	!	!	!	!	!	!	!	!	!	!
4.C/]	.	4.c\]	.	4.e-\]	<	4.C/]	.	.	4.c\]	.	.	4.e-\	.	<	1r	.	1r	.	1r	.	1r	.	1r	.	1r	.
8C/	.	8G\	.	8e-\	.	8C/	-qui-	.	8G/	-qui-	.	8e-\)	-qui-	.	.	.	.	.	.	.	.	.	.	.	.	.
4F\	]	4A-\	.	4d\	.	4F\	-em	.	4A-/	-em	.	(>4d\	-em	.	.	.	.	.	.	.	.	.	.	.	.	.
!	!	!	!	!	!	!	!	!	!	!	!	!LO:SIC:v=tekst(przypis A.B.)	!	!	!	!	!	!	!	!	!	!	!	!	!	!
4E-\	.	4G\	.	[4c\	[	4E-\	e-	.	4G/	e-	.	4c\	e-	[[	.	.	.	.	.	.	.	.	.	.	.	.
=3	=3	=3	=3	=3	=3	=3	=3	=3	=3	=3	=3	=3	=3	=3	=3	=3	=3	=3	=3	=3	=3	=3	=3	=3	=3	=3
2D\	.	2F\	.	4c\]	.	2D/	-ter-	.	2F/	-ter-	.	4c\)	-ter-	[	1r	.	1r	.	1r	.	1r	.	1r	.	1r	.
.	.	.	.	4Bn\	.	.	.	.	.	.	.	4Bn\	.	.	.	.	.	.	.	.	.	.	.	.	.	.
4C/	.	4E-\	.	4c\	.	4C/	-nam	.	4E-/	-nam	.	4c\	-nam	.	.	.	.	.	.	.	.	.	.	.	.	.
4BBn/	.	[4G\	.	(>4d\	.	(<4BBn/	do-	.	[4G/	do-	.	(>4d\	do-	.	.	.	.	.	.	.	.	.	.	.	.	.
=4	=4	=4	=4	=4	=4	=4	=4	=4	=4	=4	=4	=4	=4	=4	=4	=4	=4	=4	=4	=4	=4	=4	=4	=4	=4	=4
4C/	.	4G\]	.	4e-\)	.	4C/)	.	.	4G/]	.	.	4e-\)	.	.	1r	.	1r	.	1r	.	1r	.	1r	.	1r	.
4BB-X/	.	(>4G\	.	4d\	.	4BB-X/	-na	.	4G/	-na	.	4d\	-na	.	.	.	.	.	.	.	.	.	.	.	.	.
2AA-/	.	4G\	.	2c\	.	2AA-/	e-	.	(<4G/	e-	.	2c\	e-	.	.	.	.	.	.	.	.	.	.	.	.	.
.	.	4F#X\	.	.	.	.	.	.	4F#X/)	.	.	.	.	.	.	.	.	.	.	.	.	.	.	.	.	.
=5	=5	=5	=5	=5	=5	=5	=5	=5	=5	=5	=5	=5	=5	=5	=5	=5	=5	=5	=5	=5	=5	=5	=5	=5	=5	=5
[1GG/	.	(4G\)	.	(>4Bn\	.	4GG/	-i	.	4G/	-i	.	4Bn\	-i	.	1r	.	1r	.	1r	.	1r	.	1r	.	1r	.
.	.	4An\	.	4c\	.	2G\	Do-	.	4r	.	.	4r	.	.	.	.	.	.	.	.	.	.	.	.	.	.
.	.	4Bn\	.	4d\	.	.	.	.	2r	.	.	2r	.	.	.	.	.	.	.	.	.	.	.	.	.	.
.	.	4c\)	.	4e-\)	.	4G\	-mi-	.	.	.	.	.	.	.	.	.	.	.	.	.	.	.	.	.	.	.
=6	=6	=6	=6	=6	=6	=6	=6	=6	=6	=6	=6	=6	=6	=6	=6	=6	=6	=6	=6	=6	=6	=6	=6	=6	=6	=6
!	!	!	!	!	!LO:DY:a	!LO:N:vis=2.	!	!	!	!	!	!	!	!LO:DY:a	!	!	!	!	!	!	!	!	!	!	!	!
4GG/]	.	(>2.Bn\	.	2.d\	mf	2G\	-ne	.	(>2.Bn\	Do-	.	(>2.d\	Do-	mf	1r	.	1r	.	1r	.	1r	.	1r	.	1r	.
4G\	.	.	.	.	.	.	.	.	.	.	.	.	.	.	.	.	.	.	.	.	.	.	.	.	.	.
4GG/	.	.	.	.	.	2r	.	.	.	.	.	.	.	.	.	.	.	.	.	.	.	.	.	.	.	.
4r	.	8c\L	.	(>8e-\L	.	.	.	.	8c\L	-mi-	.	8e-\L	-mi-	.	.	.	.	.	.	.	.	.	.	.	.	.
.	.	8d\J	.	8f\J)	.	.	.	.	8d\J	.	.	8f\J	.	.	.	.	.	.	.	.	.	.	.	.	.	.
=7	=7	=7	=7	=7	=7	=7	=7	=7	=7	=7	=7	=7	=7	=7	=7	=7	=7	=7	=7	=7	=7	=7	=7	=7	=7	=7
2r	.	4c\)	.	4e-\	.	2r	.	.	4c\)	-ne	.	4e-\)	-ne	.	1r	.	1r	.	1r	.	1r	.	1r	.	1r	.
.	.	[2.c\	.	4r	.	.	.	.	[2.c\	Re-	.	4r	.	.	.	.	.	.	.	.	.	.	.	.	.	.
!	!LO:DY:b	!	!	!	!	!	!	!	!	!	!	!	!	!LO:DY:a	!	!	!	!	!	!	!	!	!	!	!	!
.	p	.	.	.	.	.	.	.	.	.	.	.	.	p<	.	.	.	.	.	.	.	.	.	.	.	.
!	!	!	!	!	!LO:DY:b	!	!	!	!	!	!	!	!	!	!	!	!	!	!	!	!	!	!	!	!	!
[2C/	.	.	.	[2e-\	p	[2C/	Re-	.	.	.	.	[2e-\	Re-	.	.	.	.	.	.	.	.	.	.	.	.	.
=8	=8	=8	=8	=8	=8	=8	=8	=8	=8	=8	=8	=8	=8	=8	=8	=8	=8	=8	=8	=8	=8	=8	=8	=8	=8	=8
!	!LO:HP:b	!	!	!	!	!	!	!	!	!	!	!	!	!	!	!	!	!	!	!	!	!	!	!	!	!
4.C/]	<	4.c\]	.	4.e-\]	.	4.C/]	.	.	4.c\]	.	.	4.e-\]	-qui-	[	1r	.	1r	.	1r	.	1r	.	1r	.	1r	.
8C/	[	8G\	.	8e-\	.	8C/	-qui-	.	8G/	-qui-	.	8e-\	-em	.	.	.	.	.	.	.	.	.	.	.	.	.
4F\	.	4A-\	.	4d\	.	4F\	-em	.	4A-/	-em	.	(>4d\	.	.	.	.	.	.	.	.	.	.	.	.	.	.
4E-\	.	4G\	.	[4c\	.	4E-\	e-	.	4G/	e-	.	4c\	e-	.	.	.	.	.	.	.	.	.	.	.	.	.
=9	=9	=9	=9	=9	=9	=9	=9	=9	=9	=9	=9	=9	=9	=9	=9	=9	=9	=9	=9	=9	=9	=9	=9	=9	=9	=9
2.D/	.	2.F\	.	4c\]	.	2.D\	-ter-	.	2.F/	-ter-	.	4c\	-ter-	.	1r	.	1r	.	1r	.	1r	.	1r	.	1r	.
.	.	.	.	8B-X\L	.	.	.	.	.	.	.	8B-X\L)	.	.	.	.	.	.	.	.	.	.	.	.	.	.
.	.	.	.	(>8c\J	.	.	.	.	.	.	.	8c\J	.	.	.	.	.	.	.	.	.	.	.	.	.	.
.	.	.	.	4B-\	.	.	.	.	.	.	.	4B-\	.	.	.	.	.	.	.	.	.	.	.	.	.	.
4D/	.	4F\	.	4A-\)	.	4D\	-nam	.	4F/	-nam	.	4A-\	-nam	.	.	.	.	.	.	.	.	.	.	.	.	.
=10	=10	=10	=10	=10	=10	=10	=10	=10	=10	=10	=10	=10	=10	=10	=10	=10	=10	=10	=10	=10	=10	=10	=10	=10	=10	=10
4.E-/	.	4.E-\	.	4.G/	.	4.E-\	do-	.	4.E-/	do-	.	4.G/	do-	.	1r	.	1r	.	1r	.	1r	.	1r	.	1r	.
8D-X/	.	8E-\	.	(>8G/	.	8D-X\	-na	.	8E-/	-na	.	(>8G/	-na	.	.	.	.	.	.	.	.	.	.	.	.	.
4.C/	.	4.E-\	.	4.A-/	.	4.C/	e-	.	4.E-/	ei	.	4.A-T/	e-	.	.	.	.	.	.	.	.	.	.	.	.	.
8AA-/	.	8E-\	.	16B-LL/	.	8AA-/	-i	.	8E-/	.	.	16B-LL/	-i	.	.	.	.	.	.	.	.	.	.	.	.	.
.	.	.	.	16c\JJ)	.	.	.	.	.	.	.	16cJJ/)	.	.	.	.	.	.	.	.	.	.	.	.	.	.
=11	=11	=11	=11	=11	=11	=11	=11	=11	=11	=11	=11	=11	=11	=11	=11	=11	=11	=11	=11	=11	=11	=11	=11	=11	=11	=11
!	!LO:DY:b	!	!	!	!	!	!	!	!	!	!	!	!	!	!	!	!	!	!	!	!	!	!	!	!	!
[2BB-/	f	2E-\	.	2G/	.	2BB-/	Do-	.	2E-/	Do-	.	2E-/	Do-	.	1r	.	1r	.	1r	.	1r	.	1r	.	1r	.
4.BB-/]	.	2F\	.	4.A-/	.	(<4.BB-/	-mi-	.	2F/	-mi-	.	4.A-/	-mi-	.	.	.	.	.	.	.	.	.	.	.	.	.
(<8BBn/	.	.	.	8G/	.	8BBn/)	.	.	.	.	.	8G/	.	.	.	.	.	.	.	.	.	.	.	.	.	.
=12	=12	=12	=12	=12	=12	=12	=12	=12	=12	=12	=12	=12	=12	=12	=12	=12	=12	=12	=12	=12	=12	=12	=12	=12	=12	=12
!LO:PB:g=original	!	!LO:PB:g=original	!	!LO:PB:g=original	!	!LO:PB:g=original	!	!	!LO:PB:g=original	!	!	!LO:PB:g=original	!	!	!	!	!	!	!	!	!	!	!	!	!	!
!	!	!	!	!	!	!	!	!	!	!	!	!	!	!LO:DY:a	!	!	!	!	!	!	!	!	!	!	!	!
2C/)	.	2E-\	.	2G/	.	2C/	-ne	.	2E-/	-ne	.	2G/	-ne	>	1r	.	1r	.	1r	.	1r	.	1r	.	1r	.
.	.	.	.	.	.	.	.	>	.	.	.	.	.	.	.	.	.	.	.	.	.	.	.	.	.	.
2BB-/^>	.	2En\^	.	(>2G/^>	.	2BB-X/	do-	.	2En/	do-	.	(>2G/	do-	]]	.	.	.	.	.	.	.	.	.	.	.	.
.	.	.	.	.	.	.	.	]	.	.	.	.	.	.	.	.	.	.	.	.	.	.	.	.	.	.
=13	=13	=13	=13	=13	=13	=13	=13	=13	=13	=13	=13	=13	=13	=13	=13	=13	=13	=13	=13	=13	=13	=13	=13	=13	=13	=13
2AA-/	.	[2F\	.	(4c\)	.	2AA-/	-na	.	2F/	-na	.	4c\)	.	.	1r	.	1r	.	1r	.	1r	.	1r	.	1r	.
.	.	.	.	4c\	.	.	.	.	.	.	.	4c\	-na	.	.	.	.	.	.	.	.	.	.	.	.	.
4AA-/	.	4.F\]	.	8Bn\L	.	4AA-/	e-	.	4.F/	e-	.	(>8Bn\L	e-	.	.	.	.	.	.	.	.	.	.	.	.	.
.	.	.	.	8c\	.	.	.	.	.	.	.	8c\J)	.	.	.	.	.	.	.	.	.	.	.	.	.	.
4AA-/	.	.	.	8A-\	.	4AA-/	-i	.	.	.	.	(>8A-\L	-i	.	.	.	.	.	.	.	.	.	.	.	.	.
.	.	8A-\	.	8F/J)	.	.	.	.	8A-/	-i	.	8F/J	.	.	.	.	.	.	.	.	.	.	.	.	.	.
=14	=14	=14	=14	=14	=14	=14	=14	=14	=14	=14	=14	=14	=14	=14	=14	=14	=14	=14	=14	=14	=14	=14	=14	=14	=14	=14
!	!	!LO:N:vis=2	!	!LO:N:vis=2	!	!	!	!	!	!	!	!	!	!LO:DY:a	!	!	!	!	!	!	!	!	!	!	!	!
2BB-/	.	2.G\	.	2.B-X\	.	2BB-/	Do-	.	2.G/	Do-	.	2.B-X\)	Do-	<	1r	.	1r	.	1r	.	1r	.	1r	.	1r	.
2BB-/	.	.	.	.	.	2BB-/	-mi-	.	.	.	.	.	.	.	.	.	.	.	.	.	.	.	.	.	.	.
.	.	4F\	.	4d\	.	.	.	.	4F/	-mi-	.	4d\	-mi-	[[	.	.	.	.	.	.	.	.	.	.	.	.
=15	=15	=15	=15	=15	=15	=15	=15	=15	=15	=15	=15	=15	=15	=15	=15	=15	=15	=15	=15	=15	=15	=15	=15	=15	=15	=15
4E-\	.	2E-\	.	2e-\	.	4E-\	-ne	.	2G/	-ne	.	2e-\	-ne	[	1r	.	1r	.	1r	.	1r	.	1r	.	1r	.
!	!	!	!	!	!	!LO:TX:a:t=dolce	!	!	!	!	!	!	!	!	!	!	!	!	!	!	!	!	!	!	!	!
4E-\	.	.	.	.	.	4E-\	et	.	.	.	.	.	.	.	.	.	.	.	.	.	.	.	.	.	.	.
4E-\	.	2r	.	2r	.	4E-\	lux	.	2r	.	.	2r	.	.	.	.	.	.	.	.	.	.	.	.	.	.
4E-\	.	.	.	.	.	4E-\	per-	.	.	.	.	.	.	.	.	.	.	.	.	.	.	.	.	.	.	.
=16	=16	=16	=16	=16	=16	=16	=16	=16	=16	=16	=16	=16	=16	=16	=16	=16	=16	=16	=16	=16	=16	=16	=16	=16	=16	=16
4.E-\	.	4r	.	4r	.	4.E-\	-pe-	.	4r	.	.	4r	.	.	1r	.	1r	.	1r	.	1r	.	1r	.	1r	.
!	!	!	!	!	!	!	!	!	!	!	!	!LO:TX:a:t=dolce	!	!	!	!	!	!	!	!	!	!	!	!	!	!
.	.	4A-\	.	4c\	.	.	.	.	4A-/	et	.	4c\	et	.	.	.	.	.	.	.	.	.	.	.	.	.
8E-\	.	.	.	.	.	8E-\	-tu-	.	.	.	.	.	.	.	.	.	.	.	.	.	.	.	.	.	.	.
4E-\	.	4G\	.	4B-\	.	4E-\	-a	.	4G/	lux	.	4B-\	lux	.	.	.	.	.	.	.	.	.	.	.	.	.
4r	.	4F#X\	.	4A-\	.	4r	.	.	4F#X/	per-	.	4An\	per-	.	.	.	.	.	.	.	.	.	.	.	.	.
=17	=17	=17	=17	=17	=17	=17	=17	=17	=17	=17	=17	=17	=17	=17	=17	=17	=17	=17	=17	=17	=17	=17	=17	=17	=17	=17
4r	.	4.G\	.	4.B-\	.	4r	.	.	4.G/	-pe-	.	4.B-\	-pe-	.	1r	.	1r	.	1r	.	1r	.	1r	.	1r	.
4E-\	.	.	.	.	.	4E-\	et	.	.	.	.	.	.	.	.	.	.	.	.	.	.	.	.	.	.	.
.	.	8Fn\	.	8A-X\	.	.	.	.	8Fn/	-tu-	.	8A-X\	-tu-	.	.	.	.	.	.	.	.	.	.	.	.	.
4E-\	.	4E-\	.	4G/	.	4E-\	lux	.	4E-/	-a	.	4G/	-a	.	.	.	.	.	.	.	.	.	.	.	.	.
4E-\	.	4r	.	4r	.	4E-\	per-	.	4r	.	.	4r	.	.	.	.	.	.	.	.	.	.	.	.	.	.
=18	=18	=18	=18	=18	=18	=18	=18	=18	=18	=18	=18	=18	=18	=18	=18	=18	=18	=18	=18	=18	=18	=18	=18	=18	=18	=18
4.E-\	.	4r	.	4r	.	4.E-\	-pe-	.	4r	.	.	4r	.	.	1r	.	1r	.	1r	.	1r	.	1r	.	1r	.
.	.	4A-\	.	4c\	.	.	.	.	4A-/	et	.	4c\	et	.	.	.	.	.	.	.	.	.	.	.	.	.
8E-\	.	.	.	.	.	8E-\	-tu-	.	.	.	.	.	.	.	.	.	.	.	.	.	.	.	.	.	.	.
4E-\	.	4G\	.	4B-\	.	4E-\	-a	.	4G/	lux	.	4B-\	lux	.	.	.	.	.	.	.	.	.	.	.	.	.
4r	.	4F#X\	.	4An\	.	4r	.	.	4F#X/	per-	.	4An\	per-	.	.	.	.	.	.	.	.	.	.	.	.	.
=19	=19	=19	=19	=19	=19	=19	=19	=19	=19	=19	=19	=19	=19	=19	=19	=19	=19	=19	=19	=19	=19	=19	=19	=19	=19	=19
!	!LO:HP:b	!	!	!	!	!	!	!	!	!	!	!	!	!	!	!	!	!	!	!	!	!	!	!	!	!
[1E-\	<	4.G\	.	4.B-\	.	1E-\	lu-	.	4.G/	-pe-	.	4.B-\	-pe-	.	1r	.	1r	.	1r	.	1r	.	1r	.	1r	.
.	.	8Fn\	.	8A-X\	.	.	.	.	8Fn/	-tu-	.	8A-X\	-tu-	.	.	.	.	.	.	.	.	.	.	.	.	.
.	.	4E-\	.	(>4G/	.	.	.	.	4E-/	-a	.	4G/	-a	.	.	.	.	.	.	.	.	.	.	.	.	.
!	!	!	!	!	!	!	!	!	!	!	!	!	!	!LO:DY:a	!	!	!	!	!	!	!	!	!	!	!	!
.	.	(>8E-\L	.	8G/L	.	.	.	.	8E-/L	lu-	.	8G/L	lu-	<	.	.	.	.	.	.	.	.	.	.	.	.
.	.	8F\J	.	8A-\J)	.	.	.	.	8F/J	.	.	8A-\J	.	.	.	.	.	.	.	.	.	.	.	.	.	.
=20	=20	=20	=20	=20	=20	=20	=20	=20	=20	=20	=20	=20	=20	=20	=20	=20	=20	=20	=20	=20	=20	=20	=20	=20	=20	=20
!	!	!	!	!	!	!	!	!LO:HP:b	!	!	!	!	!	!	!	!	!	!	!	!	!	!	!	!	!	!
4.E-\]	[	8G\L	.	8B-\L	.	4.E-\	-ce-	<	8G/L	-ce-	.	8B-\L	-ce-	.	2r	.	2r	.	2r	.	2r	.	2r	.	2r	.
.	.	8A-\	.	8c\J	.	.	.	.	8A-\J	.	.	8c\J	.	.	.	.	.	.	.	.	.	.	.	.	.	.
.	.	8F\	.	8d\L	.	.	.	.	8F/L	-at	.	8d\L	-at	.	.	.	.	.	.	.	.	.	.	.	.	.
8E-\	.	8G\J	.	8e-\J	.	8E-\	-at	.	8G/J	.	.	8e-\J	.	.	.	.	.	.	.	.	.	.	.	.	.	.
4F\	.	4A-\)	.	4d\	.	4F\	e-	[	4A-/	e-	.	4d\	e-	[	4r	.	4r	.	4r	.	4r;	.	4r	.	4r	.
!	!	!	!	!	!LO:DY:b	!	!	!LO:DY:b	!	!	!	!	!	!LO:DY:a	!	!	!	!	!	!	!	!	!	!	!	!
4E-\;	.	4G\;	.	4e-\;	f	4E-\;	-i	f	4G/;	-i	.	4e-\;	-i	f	4r;	.	4r;	.	4r;	.	4r	.	4r;	.	4r;	.
=21	=21	=21	=21	=21	=21	=21	=21	=21	=21	=21	=21	=21	=21	=21	=21	=21	=21	=21	=21	=21	=21	=21	=21	=21	=21	=21
!	!LO:DY:b	!	!	!	!LO:DY:a	!	!	!	!	!	!	!	!	!LO:DY:a	!LO:TX:t=31.	!	!LO:TX:t=31.	!	!LO:TX:t=31.	!	!LO:TX:t=31.	!	!LO:TX:t=31.	!	!LO:TX:t=31.	!
2A-\	p	2A-\	.	2c\	p	2A-\	lu-	.	2A-/	lu-	.	2c\	lu-	p	1r	.	1r	.	1r	.	1r	.	1r	.	1r	.
!	!	!	!	!	!	!	!	!	!	!	!	!	!	!LO:DY:a	!	!	!	!	!	!	!	!	!	!	!	!
4F\	<	4A-\	.	4d\	.	4F\	-ce-	.	4A-/	-ce-	.	4d\	-ce-	<	.	.	.	.	.	.	.	.	.	.	.	.
4E-\	.	4G\	.	(>4e-\	.	4E-\	-at	.	4G/	-at	.	(>4e-\	-at	[[	.	.	.	.	.	.	.	.	.	.	.	.
=22	=22	=22	=22	=22	=22	=22	=22	=22	=22	=22	=22	=22	=22	=22	=22	=22	=22	=22	=22	=22	=22	=22	=22	=22	=22	=22
1BB-/	[[	2F\	.	4e-\	.	1BB-/	e-	.	2F/	e-	.	4e-\)	e-	[	1r	.	1r	.	1r	.	1r	.	1r	.	1r	.
.	.	.	.	8d\L	.	.	.	.	.	.	.	(>8d\L	.	.	.	.	.	.	.	.	.	.	.	.	.	.
.	.	.	.	8c\J	.	.	.	.	.	.	.	8c\J	.	.	.	.	.	.	.	.	.	.	.	.	.	.
.	.	4.F\	.	(4.d\)	.	.	.	.	4.F/	.	.	4.d\)	.	.	.	.	.	.	.	.	.	.	.	.	.	.
.	.	(>8G\	.	8e-\	.	.	.	.	8G/	.	.	8e-\	.	.	.	.	.	.	.	.	.	.	.	.	.	.
=23	=23	=23	=23	=23	=23	=23	=23	=23	=23	=23	=23	=23	=23	=23	=23	=23	=23	=23	=23	=23	=23	=23	=23	=23	=23	=23
!LO:PB:g=original	!	!LO:LB:g=original	!	!LO:LB:g=original	!	!LO:LB:g=original	!	!	!LO:LB:g=original	!	!	!LO:LB:g=original	!	!	!	!	!	!	!	!	!	!	!	!	!	!
!	!	!	!	!	!	!LO:SIC:v=powinno być 4G	!	!	!	!	!	!	!	!	!	!	!	!	!	!	!	!	!	!	!	!
4E-\	[	4G\)	.	4e-\)	.	4A-\	-i	.	4G/	-i	.	4e-\	-i	.	1r	.	1r	.	1r	.	1r	.	1r	.	1r	.
4r	.	4r	.	4r	.	4r	.	.	4r	.	.	4r	.	.	.	.	.	.	.	.	.	.	.	.	.	.
2r	.	2r	.	2r	.	2A-\	Te	.	2A-\	Te	.	(>2c\	Te	.	.	.	.	.	.	.	.	.	.	.	.	.
=24	=24	=24	=24	=24	=24	=24	=24	=24	=24	=24	=24	=24	=24	=24	=24	=24	=24	=24	=24	=24	=24	=24	=24	=24	=24	=24
!	!	!	!	!	!	!	!	!	!	!	!	!LO:TX:a:t=sotto voce	!	!	!	!	!	!	!	!	!	!	!	!	!	!
1r	.	1r	.	1r	.	2E-\	de-	.	(>8c\L	de-	.	8e-\L)	de-	.	1r	.	1r	.	1r	.	1r	.	1r	.	1r	.
.	.	.	.	.	.	.	.	.	8B-\J	.	.	8d-X\J	.	.	.	.	.	.	.	.	.	.	.	.	.	.
.	.	.	.	.	.	.	.	.	2A-\	.	.	4c\	-cet	.	.	.	.	.	.	.	.	.	.	.	.	.
.	.	.	.	.	.	2E-\	-cet	.	.	.	.	2B-\	hym-	.	.	.	.	.	.	.	.	.	.	.	.	.
.	.	.	.	.	.	.	.	.	4G/)	-cet	.	.	.	.	.	.	.	.	.	.	.	.	.	.	.	.
=25	=25	=25	=25	=25	=25	=25	=25	=25	=25	=25	=25	=25	=25	=25	=25	=25	=25	=25	=25	=25	=25	=25	=25	=25	=25	=25
1r	.	1r	.	1r	.	(<4C/	hym-	.	2A-\	hy-	.	2A-\	-nus	.	1r	.	1r	.	1r	.	1r	.	1r	.	1r	.
.	.	.	.	.	.	4E-\)	.	.	.	.	.	.	.	.	.	.	.	.	.	.	.	.	.	.	.	.
.	.	.	.	.	.	4AA-/	-nus	.	2A-\	-mnus	.	(>2c\	De-	.	.	.	.	.	.	.	.	.	.	.	.	.
.	.	.	.	.	.	4r	.	.	.	.	.	.	.	.	.	.	.	.	.	.	.	.	.	.	.	.
=26	=26	=26	=26	=26	=26	=26	=26	=26	=26	=26	=26	=26	=26	=26	=26	=26	=26	=26	=26	=26	=26	=26	=26	=26	=26	=26
1r	.	1r	.	1r	.	(>2A-\	De-	.	8c\L	De-	.	8e-\L	-us	.	1r	.	1r	.	1r	.	1r	.	1r	.	1r	.
.	.	.	.	.	.	.	.	.	8B-\J	.	.	8d-X\J	.	.	.	.	.	.	.	.	.	.	.	.	.	.
.	.	.	.	.	.	.	.	.	2A-\	-us	.	4c\)	in	.	.	.	.	.	.	.	.	.	.	.	.	.
.	.	.	.	.	.	4E-\	-us	.	.	.	.	2B-\	Si-	.	.	.	.	.	.	.	.	.	.	.	.	.
.	.	.	.	.	.	8E-\L	in	.	4G/	in	.	.	.	.	.	.	.	.	.	.	.	.	.	.	.	.
.	.	.	.	.	.	8D-X\J)	.	.	.	.	.	.	.	.	.	.	.	.	.	.	.	.	.	.	.	.
=27	=27	=27	=27	=27	=27	=27	=27	=27	=27	=27	=27	=27	=27	=27	=27	=27	=27	=27	=27	=27	=27	=27	=27	=27	=27	=27
1r	.	1r	.	1r	.	(<4C/	Sion	.	2A-\	Si-	.	2A-\	-on	.	1r	.	1r	.	1r	.	1r	.	1r	.	1r	.
.	.	.	.	.	.	4E-/)	.	.	.	.	.	.	.	.	.	.	.	.	.	.	.	.	.	.	.	.
.	.	.	.	.	.	4AA-/	.	.	4A-\	-on	.	4r	.	.	.	.	.	.	.	.	.	.	.	.	.	.
.	.	.	.	.	.	4C/	et	.	4A-\	et	.	4A-\	et	.	.	.	.	.	.	.	.	.	.	.	.	.
=28	=28	=28	=28	=28	=28	=28	=28	=28	=28	=28	=28	=28	=28	=28	=28	=28	=28	=28	=28	=28	=28	=28	=28	=28	=28	=28
1r	.	1r	.	1r	.	(>4D-X\	Ti-	.	2A-\	Ti-	.	(>4B-\	Ti-	.	1r	.	1r	.	1r	.	1r	.	1r	.	1r	.
.	.	.	.	.	.	4E-\	-bi	.	.	.	.	4c\)	.	.	.	.	.	.	.	.	.	.	.	.	.	.
.	.	.	.	.	.	4F\	.	.	4A-\	-bi	.	4d-X\	-bi	.	.	.	.	.	.	.	.	.	.	.	.	.
.	.	.	.	.	.	4E-\)	red-	.	4A-\	red-	.	4c\	red-	.	.	.	.	.	.	.	.	.	.	.	.	.
=29	=29	=29	=29	=29	=29	=29	=29	=29	=29	=29	=29	=29	=29	=29	=29	=29	=29	=29	=29	=29	=29	=29	=29	=29	=29	=29
1r	.	1r	.	1r	.	4D-X/	-de-	.	2A-\	-de-	.	2f\^	-de-	.	1r	.	1r	.	1r	.	1r	.	1r	.	1r	.
.	.	.	.	.	.	4D-/	-tur	.	.	.	.	.	.	.	.	.	.	.	.	.	.	.	.	.	.	.
.	.	.	.	.	.	4C/	vo-	.	4A-\	-tur	.	4e-\	-tur	.	.	.	.	.	.	.	.	.	.	.	.	.
.	.	.	.	.	.	4BB-/	-tum	.	4G/	vo-	.	[4d-X\	vo-	.	.	.	.	.	.	.	.	.	.	.	.	.
=30	=30	=30	=30	=30	=30	=30	=30	=30	=30	=30	=30	=30	=30	=30	=30	=30	=30	=30	=30	=30	=30	=30	=30	=30	=30	=30
1r	.	1r	.	1r	.	2.AA-/	in	.	2E-/ 2A-/	-tum	.	4d-\]	.	.	1r	.	1r	.	1r	.	1r	.	1r	.	1r	.
.	.	.	.	.	.	.	.	.	.	.	.	4c\	-tum	.	.	.	.	.	.	.	.	.	.	.	.	.
.	.	.	.	.	.	.	.	.	4c\	in	.	4e-\	in	.	.	.	.	.	.	.	.	.	.	.	.	.
.	.	.	.	.	.	4C/	Je-	.	4A-\	Je-	.	4c\	Je-	.	.	.	.	.	.	.	.	.	.	.	.	.
=31	=31	=31	=31	=31	=31	=31	=31	=31	=31	=31	=31	=31	=31	=31	=31	=31	=31	=31	=31	=31	=31	=31	=31	=31	=31	=31
1r	.	1r	.	1r	.	2E-\	-ru-	.	2.G/	-ru-	.	(>2.B-\	-ru-	.	1r	.	1r	.	1r	.	1r	.	1r	.	1r	.
.	.	.	.	.	.	2E-\	-sa-	.	.	.	.	.	.	.	.	.	.	.	.	.	.	.	.	.	.	.
.	.	.	.	.	.	.	.	.	(<8A-\L	-sa-	.	8c\L	-sa-	.	.	.	.	.	.	.	.	.	.	.	.	.
.	.	.	.	.	.	.	.	.	8G/J)	.	.	8B-\J	.	.	.	.	.	.	.	.	.	.	.	.	.	.
=32	=32	=32	=32	=32	=32	=32	=32	=32	=32	=32	=32	=32	=32	=32	=32	=32	=32	=32	=32	=32	=32	=32	=32	=32	=32	=32
1r	.	1r	.	1r	.	4E-\	-lem	.	4G/	-lem	.	4.B-\)	-lem	.	1r	.	1r	.	1r	.	1r	.	1r	.	1r	.
.	.	.	.	.	.	4r	.	.	4r	.	.	.	.	.	.	.	.	.	.	.	.	.	.	.	.	.
.	.	.	.	.	.	.	.	.	.	.	.	8Bn\	.	.	.	.	.	.	.	.	.	.	.	.	.	.
.	.	.	.	.	.	2A-\	exau-	.	2A-\	exau-	.	2c\)	-e-	.	.	.	.	.	.	.	.	.	.	.	.	.
=33	=33	=33	=33	=33	=33	=33	=33	=33	=33	=33	=33	=33	=33	=33	=33	=33	=33	=33	=33	=33	=33	=33	=33	=33	=33	=33
1r	.	1r	.	1r	.	2E-\	-di-	.	(>8c\L	-di-	.	8e-\L	xau	.	1r	.	1r	.	1r	.	1r	.	1r	.	1r	.
.	.	.	.	.	.	.	.	.	8B-\J	.	.	8d-X\J	.	.	.	.	.	.	.	.	.	.	.	.	.	.
.	.	.	.	.	.	.	.	.	2A-\)	.	.	4c\	-di	.	.	.	.	.	.	.	.	.	.	.	.	.
.	.	.	.	.	.	4E-\	-o-	.	.	.	.	2B-\	ora-	.	.	.	.	.	.	.	.	.	.	.	.	.
.	.	.	.	.	.	8E-\L	-ra	.	4G/	ora-	.	.	.	.	.	.	.	.	.	.	.	.	.	.	.	.
.	.	.	.	.	.	8D-X\J	.	.	.	.	.	.	.	.	.	.	.	.	.	.	.	.	.	.	.	.
=34	=34	=34	=34	=34	=34	=34	=34	=34	=34	=34	=34	=34	=34	=34	=34	=34	=34	=34	=34	=34	=34	=34	=34	=34	=34	=34
1r	.	1r	.	1r	.	(>4C/	ti-	.	2A-\	-ti-	.	2A-\	.	.	1r	.	1r	.	1r	.	1r	.	1r	.	1r	.
.	.	.	.	.	.	4E-\)	.	.	.	.	.	.	.	.	.	.	.	.	.	.	.	.	.	.	.	.
.	.	.	.	.	.	(>4AA-/	.	.	2A-\	.	.	2c\	-ti-	.	.	.	.	.	.	.	.	.	.	.	.	.
.	.	.	.	.	.	4A-\)	.	.	.	.	.	.	.	.	.	.	.	.	.	.	.	.	.	.	.	.
=35	=35	=35	=35	=35	=35	=35	=35	=35	=35	=35	=35	=35	=35	=35	=35	=35	=35	=35	=35	=35	=35	=35	=35	=35	=35	=35
1r	.	1r	.	1r	.	2A-\	-onem	.	(>8c\L	-o-	.	(>8e-\L	-o-	.	1r	.	1r	.	1r	.	1r	.	1r	.	1r	.
.	.	.	.	.	.	.	.	.	8B-\J	-nem	.	8d-X\J)	.	.	.	.	.	.	.	.	.	.	.	.	.	.
.	.	.	.	.	.	.	.	.	2A-\	.	.	4c\	-nem	.	.	.	.	.	.	.	.	.	.	.	.	.
.	.	.	.	.	.	2E-\	.	.	.	.	.	2B-\	me-	.	.	.	.	.	.	.	.	.	.	.	.	.
.	.	.	.	.	.	.	.	.	4G/)	me-	.	.	.	.	.	.	.	.	.	.	.	.	.	.	.	.
=36	=36	=36	=36	=36	=36	=36	=36	=36	=36	=36	=36	=36	=36	=36	=36	=36	=36	=36	=36	=36	=36	=36	=36	=36	=36	=36
!LO:PB:g=original	!	!LO:PB:g=original	!	!LO:PB:g=original	!	!LO:PB:g=original	!	!	!LO:PB:g=original	!	!	!LO:PB:g=original	!	!	!	!	!	!	!	!	!	!	!	!	!	!
!	!	!	!	!	!	!	!	!	!	!	!	!LO:N:vis=2	!	!	!	!	!	!	!	!	!	!	!	!	!	!
1r	.	1r	.	1r	.	(<4C-X/	me-	.	2A-\	-am	.	2.A-\	-am	.	1r	.	1r	.	1r	.	1r	.	1r	.	1r	.
.	.	.	.	.	.	4E-/)	.	.	.	.	.	.	.	.	.	.	.	.	.	.	.	.	.	.	.	.
.	.	.	.	.	.	4AA-/	-am	.	2A-\	ad	.	.	.	.	.	.	.	.	.	.	.	.	.	.	.	.
.	.	.	.	.	.	4C-/	ad	.	.	.	.	4A-\	ad	.	.	.	.	.	.	.	.	.	.	.	.	.
=37	=37	=37	=37	=37	=37	=37	=37	=37	=37	=37	=37	=37	=37	=37	=37	=37	=37	=37	=37	=37	=37	=37	=37	=37	=37	=37
1r	.	1r	.	1r	.	(>4D-X\	te	.	2A-\	te	.	(>4B-\	Te	.	1r	.	1r	.	1r	.	1r	.	1r	.	1r	.
.	.	.	.	.	.	4E-\	.	.	.	.	.	4c\	.	.	.	.	.	.	.	.	.	.	.	.	.	.
.	.	.	.	.	.	4F\	o-	.	4A-\	o-	.	4d-X\	o-	.	.	.	.	.	.	.	.	.	.	.	.	.
.	.	.	.	.	.	4E-\)	-mnis	.	4A-\	-mnis	.	4c\)	-mnis	.	.	.	.	.	.	.	.	.	.	.	.	.
=38	=38	=38	=38	=38	=38	=38	=38	=38	=38	=38	=38	=38	=38	=38	=38	=38	=38	=38	=38	=38	=38	=38	=38	=38	=38	=38
1r	.	1r	.	1r	.	2D-X\	ca-	.	2A-\	ca-	.	2f\^	ca-	.	1r	.	1r	.	1r	.	1r	.	1r	.	1r	.
.	.	.	.	.	.	4C/	-ro	.	4A-\	-ro	.	4e-\	-ro	.	.	.	.	.	.	.	.	.	.	.	.	.
.	.	.	.	.	.	4BB-/	ad	.	4A-\	ad	.	4dn\	ad	.	.	.	.	.	.	.	.	.	.	.	.	.
=39	=39	=39	=39	=39	=39	=39	=39	=39	=39	=39	=39	=39	=39	=39	=39	=39	=39	=39	=39	=39	=39	=39	=39	=39	=39	=39
1r	.	1r	.	1r	.	2E-\	te	.	2G/	te	.	2d-X\	te	.	1r	.	1r	.	1r	.	1r	.	1r	.	1r	.
.	.	.	.	.	.	2F\	om-	.	2A-/	om-	.	(>2c\	om-	.	.	.	.	.	.	.	.	.	.	.	.	.
=40	=40	=40	=40	=40	=40	=40	=40	=40	=40	=40	=40	=40	=40	=40	=40	=40	=40	=40	=40	=40	=40	=40	=40	=40	=40	=40
1r	.	1r	.	1r	.	2D-X\	-nis	.	2F/	-nis	.	4c\)	-nis	.	1r	.	1r	.	1r	.	1r	.	1r	.	1r	.
.	.	.	.	.	.	.	.	.	.	.	.	4B-\	.	.	.	.	.	.	.	.	.	.	.	.	.	.
.	.	.	.	.	.	4D-\	ca-	.	4d-X\	ca-	.	4f\	ca-	.	.	.	.	.	.	.	.	.	.	.	.	.
.	.	.	.	.	.	4D-\	-ro	.	4B-\	-ro	.	4d-X\	-ro	.	.	.	.	.	.	.	.	.	.	.	.	.
=41	=41	=41	=41	=41	=41	=41	=41	=41	=41	=41	=41	=41	=41	=41	=41	=41	=41	=41	=41	=41	=41	=41	=41	=41	=41	=41
1r	.	1r	.	1r	.	2E-\	ve-	.	2A-\	ve-	.	2c\	ve-	.	1r	.	1r	.	1r	.	1r	.	1r	.	1r	.
.	.	.	.	.	.	2E-\	-ni-	.	(<4.G/	-ni-	.	(>4.B-\	-ni-	.	.	.	.	.	.	.	.	.	.	.	.	.
.	.	.	.	.	.	.	.	.	8A-/)	.	.	8c\	.	.	.	.	.	.	.	.	.	.	.	.	.	.
=42	=42	=42	=42	=42	=42	=42	=42	=42	=42	=42	=42	=42	=42	=42	=42	=42	=42	=42	=42	=42	=42	=42	=42	=42	=42	=42
4r	.	1r	.	1r	.	4AA-/	-et	.	2A-/	-et	.	2c\)	-et	.	1r	.	1r	.	1r	.	1r	.	1r	.	1r	.
(>2A-\^	.	.	.	.	.	2A-\^	Re-	.	.	.	.	.	.	.	.	.	.	.	.	.	.	.	.	.	.	.
.	.	.	.	.	.	.	.	.	2r	.	.	2r	.	.	.	.	.	.	.	.	.	.	.	.	.	.
4G\	.	.	.	.	.	4G\	-qui-	.	.	.	.	.	.	.	.	.	.	.	.	.	.	.	.	.	.	.
=43	=43	=43	=43	=43	=43	=43	=43	=43	=43	=43	=43	=43	=43	=43	=43	=43	=43	=43	=43	=43	=43	=43	=43	=43	=43	=43
4F\)	.	4r	.	1r	.	4F\	-em	.	4r	.	.	1r	.	.	1r	.	1r	.	1r	.	1r	.	1r	.	1r	.
2F\	.	(>2A-\^	.	.	.	2F\	.	.	2A-\^	Re-	.	.	.	.	.	.	.	.	.	.	.	.	.	.	.	.
4E-\	.	4G\	.	.	.	4E-\	.	.	4G/	-qui-	.	.	.	.	.	.	.	.	.	.	.	.	.	.	.	.
=44	=44	=44	=44	=44	=44	=44	=44	=44	=44	=44	=44	=44	=44	=44	=44	=44	=44	=44	=44	=44	=44	=44	=44	=44	=44	=44
(>4Dn\	.	4F\)	.	4r	.	4Dn/	.	.	4F/	-em	.	4r	.	.	1r	.	1r	.	1r	.	1r	.	1r	.	1r	.
4BB-/	.	(>4D\	.	(>2B-\^	.	4BB-/	e-	.	(<4Dn/	e-	.	(>2B-\^	Re-	.	.	.	.	.	.	.	.	.	.	.	.	.
4C/	.	4E-\	.	.	.	(<4C/	-ter-	.	4E-/)	.	.	.	.	.	.	.	.	.	.	.	.	.	.	.	.	.
4D/	.	4F\	.	4A-\)	.	4D\)	.	.	4F/	-ter-	.	4A-\	-qui-	.	.	.	.	.	.	.	.	.	.	.	.	.
=45	=45	=45	=45	=45	=45	=45	=45	=45	=45	=45	=45	=45	=45	=45	=45	=45	=45	=45	=45	=45	=45	=45	=45	=45	=45	=45
4E-\)	.	(4G\)	.	(>4G/	.	4E-\	-nam	.	4G/	-nam	.	4G/	-em	.	1r	.	1r	.	1r	.	1r	.	1r	.	1r	.
(>4E-\	.	2e-\^<	.	4G/	.	4E-\	.	.	2e-\^	do-	.	4G/)	ae-	.	.	.	.	.	.	.	.	.	.	.	.	.
4F\	.	.	.	4A-\	.	(>4F\	.	.	.	.	.	(>4A-\	-ter-	.	.	.	.	.	.	.	.	.	.	.	.	.
4G\	.	4d\	.	4B-\	.	4G\)	.	.	4d\	-na	.	4B-\	.	.	.	.	.	.	.	.	.	.	.	.	.	.
=46	=46	=46	=46	=46	=46	=46	=46	=46	=46	=46	=46	=46	=46	=46	=46	=46	=46	=46	=46	=46	=46	=46	=46	=46	=46	=46
4A-\)	.	4c\)	.	4A-\)	.	4A-\	.	.	(>4c\	e-	.	4A-\)	-nam	.	1r	.	1r	.	1r	.	1r	.	1r	.	1r	.
(>4F\	.	4A-\	.	2f\^<	.	(>4F\	do-	.	4A-\)	.	.	2f\^	do-	.	.	.	.	.	.	.	.	.	.	.	.	.
4G\	.	4B-\	.	.	.	4G\	.	.	(>4B-\	-i	.	.	.	.	.	.	.	.	.	.	.	.	.	.	.	.
4An\	.	4c\	.	4e-\	.	4An\	.	.	4c\)	.	.	4e-\	-na	.	.	.	.	.	.	.	.	.	.	.	.	.
=47	=47	=47	=47	=47	=47	=47	=47	=47	=47	=47	=47	=47	=47	=47	=47	=47	=47	=47	=47	=47	=47	=47	=47	=47	=47	=47
4B-\	.	2B-\	.	2d\	.	4B-\)	-na	.	2B-\	e-	.	2d\	ei	.	1r	.	1r	.	1r	.	1r	.	1r	.	1r	.
2B-\)	.	.	.	.	.	2B-\	ei	.	.	.	.	.	.	.	.	.	.	.	.	.	.	.	.	.	.	.
.	.	2B-\	.	2d\	.	.	.	.	2B-\	-i	.	2d\	.	.	.	.	.	.	.	.	.	.	.	.	.	.
4A-X\	.	.	.	.	.	4A-X\	.	.	.	.	.	.	.	.	.	.	.	.	.	.	.	.	.	.	.	.
=48	=48	=48	=48	=48	=48	=48	=48	=48	=48	=48	=48	=48	=48	=48	=48	=48	=48	=48	=48	=48	=48	=48	=48	=48	=48	=48
2.G\	.	2.Bn\	.	2.d\	.	2.G\	Do-	.	2.Bn\	Do-	.	2.d\	Do-	.	1r	.	1r	.	1r	.	1r	.	1r	.	1r	.
4F\	.	4B\	.	4d\	.	4F\	-mi-	.	4B\	-mi-	.	4d\	-mi-	.	.	.	.	.	.	.	.	.	.	.	.	.
=49	=49	=49	=49	=49	=49	=49	=49	=49	=49	=49	=49	=49	=49	=49	=49	=49	=49	=49	=49	=49	=49	=49	=49	=49	=49	=49
!LO:LB:g=original	!	!LO:LB:g=original	!	!LO:LB:g=original	!	!LO:LB:g=original	!	!	!LO:LB:g=original	!	!	!LO:LB:g=original	!	!	!	!	!	!	!	!	!	!	!	!	!	!
4E-\	.	4c\	.	4c\	.	4E-\	-ne	.	4c\	-ne	.	4c\	-ne	.	1r	.	1r	.	1r	.	1r	.	1r	.	1r	.
4E-\	.	4G\	.	4c\	.	4E-\	et	.	4G/	et	.	4c\	et	.	.	.	.	.	.	.	.	.	.	.	.	.
!	!	!	!	!	!LO:HP:b	!	!	!	!	!	!	!	!	!LO:DY:a	!	!	!	!	!	!	!	!	!	!	!	!
4E-\	.	4G\	.	4c\	<	4E-\	lux	.	4G/	lux	.	4c\	lux	<	.	.	.	.	.	.	.	.	.	.	.	.
[4E-\	.	4G\	.	4c\	.	4E-\	per-	.	4G/	per-	.	4c\	per-	.	.	.	.	.	.	.	.	.	.	.	.	.
=50	=50	=50	=50	=50	=50	=50	=50	=50	=50	=50	=50	=50	=50	=50	=50	=50	=50	=50	=50	=50	=50	=50	=50	=50	=50	=50
4.E-\]	.	4.G\	.	4.c#X\	.	4.E-\	-pe-	.	4.G/	-pe-	.	4.c#X\	-pe-	.	1r	.	1r	.	1r	.	1r	.	1r	.	1r	.
8E-\	.	8G\	.	8G\ 8c#\	.	8E-\	-tu-	.	8G/	-tu-	.	8c#\	-tu-	[	.	.	.	.	.	.	.	.	.	.	.	.
4E-\	.	4G\	.	4G\ 4c#\	[	4E-\	-a	.	4G/	-a	.	4c#\	-a	.	.	.	.	.	.	.	.	.	.	.	.	.
4r	.	4r	.	4r	.	4r	.	.	4r	.	.	4r	.	.	.	.	.	.	.	.	.	.	.	.	.	.
=51	=51	=51	=51	=51	=51	=51	=51	=51	=51	=51	=51	=51	=51	=51	=51	=51	=51	=51	=51	=51	=51	=51	=51	=51	=51	=51
!	!	!	!	!	!LO:DY:b	!	!	!	!	!	!	!	!	!LO:DY:a	!	!	!	!	!	!	!	!	!	!	!	!
4.D\	.	4.F#X\ 4.An\	.	4.F#X\ 4.d\	f	4.D/	lu-	.	4.F#X/ 4.An/	lu-	.	4.d\	lu-	f	1r	.	1r	.	1r	.	1r	.	1r	.	1r	.
8D\	.	8F#\ 8A\	.	8F#\ 8d\	.	8D/	-ce-	.	8F#/ 8A/	-ce-	.	8d\	-ce-	.	.	.	.	.	.	.	.	.	.	.	.	.
4D\	.	4F#\ 4A\	.	4F#\ 4d\	.	4D/	-at	.	4F#/ 4A/	-at	.	4d\	-at	.	.	.	.	.	.	.	.	.	.	.	.	.
4r	.	4r	.	4r	.	4r	.	.	4r	.	.	4r	.	.	.	.	.	.	.	.	.	.	.	.	.	.
=52	=52	=52	=52	=52	=52	=52	=52	=52	=52	=52	=52	=52	=52	=52	=52	=52	=52	=52	=52	=52	=52	=52	=52	=52	=52	=52
*	*	*	*	*	*	*	*	*	*	*	*	*	*	*	*	*	*	*	*	*	*	*	*^	*	*	*
*	*	*	*	*	*	*	*	*	*	*	*	*	*	*	*tremolo	*	*	*	*	*	*	*	*	*	*	*	*
!	!	!	!	!	!	!	!	!	!	!	!	!	!	!	!	!LO:HP:a	!	!LO:HP:a	!	!LO:HP:a	!	!LO:HP:a	!	!	!LO:HP:a	!	!LO:HP:a
(>1GG/ 1G/	.	1G\ 1Bn\	.	(>1G\^ 1d\	.	1GG/ [1G/	e-	.	(>1G/ 1Bn/	e-	.	1Bn\ 1d\	e-	.	16GG/L	>	2.GG\ 2.G\	>	2.Bn\	>	2.d\	>	2.g/	2.G\	>	2.g/	>
.	.	.	.	.	.	.	.	.	.	.	.	.	.	.	16GG/	.	.	.	.	.	.	.	.	.	.	.	.
.	.	.	.	.	.	.	.	.	.	.	.	.	.	.	16GG/	.	.	.	.	.	.	.	.	.	.	.	.
.	.	.	.	.	.	.	.	.	.	.	.	.	.	.	16GG/	.	.	.	.	.	.	.	.	.	.	.	.
.	.	.	.	.	.	.	.	.	.	.	.	.	.	.	16GG/	.	.	.	.	.	.	.	.	.	.	.	.
.	.	.	.	.	.	.	.	.	.	.	.	.	.	.	16GG/	.	.	.	.	.	.	.	.	.	.	.	.
.	.	.	.	.	.	.	.	.	.	.	.	.	.	.	16GG/	.	.	.	.	.	.	.	.	.	.	.	.
.	.	.	.	.	.	.	.	.	.	.	.	.	.	.	16GG/J	.	.	]	.	]	.	]	.	.	]	.	]
*	*	*	*	*	*	*	*	*	*	*	*	*	*	*	*Xtremolo	*	*	*	*	*	*	*	*	*	*	*	*
.	.	.	.	.	.	.	.	.	.	.	.	.	.	.	4GG/	]	.	.	.	.	.	p	.	.	.	.	.
.	.	.	.	.	.	.	.	.	.	.	.	.	.	.	4r	.	4r	.	4r	.	4r	.	4r	4ryy	.	4r	.
*	*	*	*	*	*	*	*	*	*	*	*	*	*	*	*	*	*	*	*	*	*	*	*v	*v	*	*	*
=53	=53	=53	=53	=53	=53	=53	=53	=53	=53	=53	=53	=53	=53	=53	=53	=53	=53	=53	=53	=53	=53	=53	=53	=53	=53	=53
!	!	!	!	!	!	!	!	!	!	!	!	!	!	!LO:DY:a	!LO:TX:a:t=11.	!	!LO:TX:a:t=11.	!	!LO:TX:a:t=11.	!	!LO:TX:a:t=11.	!	!LO:TX:a:t=11.	!	!LO:TX:a:t=11.	!
2.GG/) 2.G/	.	2.G\ 2.Bn\	.	2.G\) 2.d\	.	2.GG\ 2.G]\	-i	.	2.G/) 2.Bn/	-i	.	2.Bn\ 2.d\	-i	.	1r	.	1r	.	1r	.	1r	.	1r	.	1r	.
.	.	.	.	.	.	.	.	.	.	.	.	.	.	p	.	.	.	.	.	.	.	.	.	.	.	.
4r	.	4r	.	4r	.	4r	.	.	4r	.	.	4r	.	.	.	.	.	.	.	.	.	.	.	.	.	.
=54	=54	=54	=54	=54	=54	=54	=54	=54	=54	=54	=54	=54	=54	=54	=54	=54	=54	=54	=54	=54	=54	=54	=54	=54	=54	=54
!	!	!	!	!	!	!	!	!	!	!	!LO:DY:a	!	!	!	!	!	!	!	!	!	!	!	!	!	!	!
2r	.	[1c\	.	2r	.	2r	.	.	(>1c\	Ky-	p	2r	.	.	1r	.	1r	.	1r	.	1r	.	1r	.	1r	.
!	!LO:DY:a	!	!	!	!LO:DY:a	!	!	!	!	!	!	!	!	!LO:DY:a	!	!	!	!	!	!	!	!	!	!	!	!
(<2C/	p	.	.	[2e-\	<	[2C/	Ky-	.	.	.	.	[2e-\	Ky-	p	.	.	.	.	.	.	.	.	.	.	.	.
=55	=55	=55	=55	=55	=55	=55	=55	=55	=55	=55	=55	=55	=55	=55	=55	=55	=55	=55	=55	=55	=55	=55	=55	=55	=55	=55
!	!	!	!	!	!	!	!	!	!	!	!	!	!	!LO:DY:a	!	!	!	!	!	!	!	!	!	!	!	!
4.C/	.	4.c\]	.	4.e-\]	.	4.C/]	.	.	4.c\	.	.	4.e-\]	.	<	1r	.	1r	.	1r	.	1r	.	1r	.	1r	.
(<8C/)	.	8G\	.	8e-\	[	8C/	.	.	8G/)	-ri-	.	8e-\	-rie	.	.	.	.	.	.	.	.	.	.	.	.	.
4F\	.	4A-\	.	(>4d\	.	4F\	-rie	.	4A-/	-e	.	4d\	e-	.	.	.	.	.	.	.	.	.	.	.	.	.
4E-\	.	4G\	.	4c\	.	4E-\	e-	.	4G/	e-	.	[4c\	-ley-	[[	.	.	.	.	.	.	.	.	.	.	.	.
=56	=56	=56	=56	=56	=56	=56	=56	=56	=56	=56	=56	=56	=56	=56	=56	=56	=56	=56	=56	=56	=56	=56	=56	=56	=56	=56
2D/)	.	2F\	.	4c\	.	2D\	-ley-	.	2F/	-ley-	.	4c\]	.	[	1r	.	1r	.	1r	.	1r	.	1r	.	1r	.
.	.	.	.	4Bn\)	.	.	.	.	.	.	.	4Bn\	-son	.	.	.	.	.	.	.	.	.	.	.	.	.
4C/	.	4E-\	.	4c\	.	4C/	-son	.	(<4E-/	-son	.	4c\	e-	.	.	.	.	.	.	.	.	.	.	.	.	.
4BBn/	.	4G\	.	4d\	.	4BBn/	e-	.	4G/	e-	.	(>4d\	-ley-	.	.	.	.	.	.	.	.	.	.	.	.	.
=57	=57	=57	=57	=57	=57	=57	=57	=57	=57	=57	=57	=57	=57	=57	=57	=57	=57	=57	=57	=57	=57	=57	=57	=57	=57	=57
4C/	.	2.G\	.	4e-\	.	4C/	-ley-	.	2.G/	-ley-	.	4e-\	.	.	1r	.	1r	.	1r	.	1r	.	1r	.	1r	.
4BB-X/	.	.	.	4d\	.	4BB-X/	.	.	.	.	.	4d\	.	.	.	.	.	.	.	.	.	.	.	.	.	.
2AA-/	.	.	.	2c\	.	2AA-/	.	.	.	.	.	2c\)	.	.	.	.	.	.	.	.	.	.	.	.	.	.
.	.	(>4F#X\	.	.	.	.	.	.	4F#X/)	.	.	.	.	.	.	.	.	.	.	.	.	.	.	.	.	.
=58	=58	=58	=58	=58	=58	=58	=58	=58	=58	=58	=58	=58	=58	=58	=58	=58	=58	=58	=58	=58	=58	=58	=58	=58	=58	=58
*^	*	*	*	*	*	*	*	*	*	*	*	*	*	*	*	*	*	*	*	*	*	*	*	*	*	*
!	!LO:SIC:v=1GG na środku taktu	!	!	!	!	!	!	!	!	!	!	!	!	!	!	!	!	!	!	!	!	!	!	!	!	!	!
4GG/	1GG\	.	4G\	.	(>4Bn\	.	4GG/	-son	.	2G/	-son	.	2Bn\	-son	.	1r	.	1r	.	1r	.	1r	.	1r	.	1r	.
(>2G\	.	.	4An\	.	4c\	.	2G\	Ky-	.	.	.	.	.	.	.	.	.	.	.	.	.	.	.	.	.	.	.
.	.	.	4Bn\	.	4d\	.	.	.	.	4r	.	.	4r	.	.	.	.	.	.	.	.	.	.	.	.	.	.
4G/	.	.	4c\)	.	4e-\)	.	4G\	-ri-	.	4cn\	eley	.	4e-\	eley	.	.	.	.	.	.	.	.	.	.	.	.	.
=59	=59	=59	=59	=59	=59	=59	=59	=59	=59	=59	=59	=59	=59	=59	=59	=59	=59	=59	=59	=59	=59	=59	=59	=59	=59	=59	=59
!	!	!	!	!	!	!LO:DY:b	!	!	!	!	!	!	!	!	!LO:DY:b	!	!	!	!	!	!	!	!	!	!	!	!
4GG\)	2ryy	.	2.Bn\	.	(>2.d\	mf	2G\	-e	.	(>2.Bn\	.	.	(>2.d\	.	mf	1r	.	1r	.	1r	.	1r	.	1r	.	1r	.
2G\	.	.	.	.	.	.	.	.	.	.	.	.	.	.	mf	.	.	.	.	.	.	.	.	.	.	.	.
.	4G\	.	.	.	.	.	2r	.	.	.	.	.	.	.	.	.	.	.	.	.	.	.	.	.	.	.	.
4GG/	4rC	.	8c\L	.	8e-\L	.	.	.	.	8c\L	.	.	8e-\L	.	.	.	.	.	.	.	.	.	.	.	.	.	.
.	.	.	8d\J	.	8f\J)	.	.	.	.	8d\J)	.	.	8f\J	.	.	.	.	.	.	.	.	.	.	.	.	.	.
*v	*v	*	*	*	*	*	*	*	*	*	*	*	*	*	*	*	*	*	*	*	*	*	*	*	*	*	*
=60	=60	=60	=60	=60	=60	=60	=60	=60	=60	=60	=60	=60	=60	=60	=60	=60	=60	=60	=60	=60	=60	=60	=60	=60	=60	=60
2r	.	4c\	.	4e-\	.	2r	.	.	4c\	-son	.	4e-\)	-son	.	1r	.	1r	.	1r	.	1r	.	1r	.	1r	.
!	!	!	!	!	!	!	!	!	!	!	!LO:DY:a	!	!	!	!	!	!	!	!	!	!	!	!	!	!	!
.	.	(>2.c\	.	4r	.	.	.	.	2.c\	Chri-	.	4r	.	.	.	.	.	.	.	.	.	.	.	.	.	.
.	.	.	.	.	.	.	.	.	.	.	p	.	.	.	.	.	.	.	.	.	.	.	.	.	.	.
!	!	!	!	!	!	!	!	!	!	!	!	!	!	!LO:DY:a	!	!	!	!	!	!	!	!	!	!	!	!
(<2C/	.	.	.	[2e-\	.	(<2C/	Chri-	.	.	.	.	(>2e-\	Chri-	p	.	.	.	.	.	.	.	.	.	.	.	.
=61	=61	=61	=61	=61	=61	=61	=61	=61	=61	=61	=61	=61	=61	=61	=61	=61	=61	=61	=61	=61	=61	=61	=61	=61	=61	=61
!LO:PB:g=original	!	!	!	!LO:PB:g=original	!	!LO:PB:g=original	!	!	!LO:PB:g=original	!	!	!LO:PB:g=original	!	!	!	!	!	!	!	!	!	!	!	!	!	!
!	!	!	!	!LO:SIC:v=brak zakończenia ligatury	!	!	!	!	!	!	!	!	!	!	!	!	!	!	!	!	!	!	!	!	!	!
4.C/)	.	4.c\)	.	4e-\]	.	4.C/)	-ste	.	4.c\	-ste	.	4.e-\)	-ste	.	1r	.	1r	.	1r	.	1r	.	1r	.	1r	.
.	.	.	.	4e-\	.	.	.	.	.	.	.	.	.	.	.	.	.	.	.	.	.	.	.	.	.	.
8C/	.	8G\	.	.	.	8C/	e-	.	8G/	e-	.	8e-\	e-	.	.	.	.	.	.	.	.	.	.	.	.	.
4F\	.	4A-\	.	4d\	.	4F\	-ley-	.	4A-/	-ley-	.	4d\	-ley-	.	.	.	.	.	.	.	.	.	.	.	.	.
4E-\	.	4G\	.	[4c\	.	4E-\	.	.	4G/	.	.	[4c\	.	.	.	.	.	.	.	.	.	.	.	.	.	.
=62	=62	=62	=62	=62	=62	=62	=62	=62	=62	=62	=62	=62	=62	=62	=62	=62	=62	=62	=62	=62	=62	=62	=62	=62	=62	=62
(>2D\	.	2F\	.	4c\]	.	2D\	.	.	2F/	.	.	4c\]	.	.	1r	.	1r	.	1r	.	1r	.	1r	.	1r	.
!	!	!	!	!	!	!	!	!	!	!	!	!	!	!LO:DY:a	!	!	!	!	!	!	!	!	!	!	!	!
.	.	.	.	4Bn\	.	.	.	.	.	.	.	4Bn\	.	.	.	.	.	.	.	.	.	.	.	.	.	.
!	!	!	!	!	!LO:DY:a	!	!	!	!	!	!	!	!	!	!	!	!	!	!	!	!	!	!	!	!	!
4C/)	.	4E-\	.	4c\	<	4C/	-son	.	4E-/	-son	.	4c\	-son	<	.	.	.	.	.	.	.	.	.	.	.	.
8G\L	.	4Bn\	.	4d\	[[	8G\L	e-	.	4Bn\	e-	.	4d\	e-	.	.	.	.	.	.	.	.	.	.	.	.	.
8F\J	.	.	.	.	.	8F\J	.	.	.	.	.	.	.	.	.	.	.	.	.	.	.	.	.	.	.	.
=63	=63	=63	=63	=63	=63	=63	=63	=63	=63	=63	=63	=63	=63	=63	=63	=63	=63	=63	=63	=63	=63	=63	=63	=63	=63	=63
(>4E-\	.	2.c\	.	2e-\	[	4E-\	-ley-	.	2.c\	-ley-	.	2e-\	-ley-	[	1r	.	1r	.	1r	.	1r	.	1r	.	1r	.
8A-\L	.	.	.	.	.	8A-\L	.	.	.	.	.	.	.	.	.	.	.	.	.	.	.	.	.	.	.	.
8G\J	.	.	.	.	.	8G\J	.	.	.	.	.	.	.	.	.	.	.	.	.	.	.	.	.	.	.	.
4F\	.	.	.	2d\	.	4F\	.	.	.	.	.	2d\	.	.	.	.	.	.	.	.	.	.	.	.	.	.
4G\)	.	4Bn\	.	.	.	4G\	.	.	4Bn\	.	.	.	.	.	.	.	.	.	.	.	.	.	.	.	.	.
=64	=64	=64	=64	=64	=64	=64	=64	=64	=64	=64	=64	=64	=64	=64	=64	=64	=64	=64	=64	=64	=64	=64	=64	=64	=64	=64
2.A-\;	.	2.c\;	.	2.c\^<;	.	2.A-\;	-son	.	2.c\;	-son	.	2.c\;	-son	.	2.r;	.	2.r;	.	2.r;	.	2.r;	.	2.r;	.	2.r;	.
8G\L	.	4Bn\	.	4d\	.	8G\L	e-	.	4Bn\	e-	.	4d\	e-	.	4r	.	4r	.	4r	.	4r	.	4r	.	4r	.
8F\J	.	.	.	.	.	8F\J	.	.	.	.	.	.	.	.	.	.	.	.	.	.	.	.	.	.	.	.
=65	=65	=65	=65	=65	=65	=65	=65	=65	=65	=65	=65	=65	=65	=65	=65	=65	=65	=65	=65	=65	=65	=65	=65	=65	=65	=65
4E-\	.	2.c\	.	2e-\	.	4E-\	-ley-	.	2.c\	-ley-	.	2e-\	-ley-	.	00r	.	00r	.	00r	.	00r	.	00r	.	00r	.
8A-\L	.	.	.	.	.	8A-\L	.	.	.	.	.	.	.	.	.	.	.	.	.	.	.	.	.	.	.	.
8G\J	.	.	.	.	.	8G\J	.	.	.	.	.	.	.	.	.	.	.	.	.	.	.	.	.	.	.	.
4F\	.	.	.	2d\	.	4F\	.	.	.	.	.	2d\	.	.	.	.	.	.	.	.	.	.	.	.	.	.
4G\	.	4Bn\	.	.	.	4G\	.	.	4Bn\	.	.	.	.	.	.	.	.	.	.	.	.	.	.	.	.	.
=66	=66	=66	=66	=66	=66	=66	=66	=66	=66	=66	=66	=66	=66	=66	=66	=66	=66	=66	=66	=66	=66	=66	=66	=66	=66	=66
4C/	.	4c\	.	4c\	.	4C/	-son	.	4c\	-son	.	4c\	-son	.	.	.	.	.	.	.	.	.	.	.	.	.
2C/	.	8E-\L	.	8G\L 8c\	.	2C/	Ky-	.	8E-/	Ky-	.	8c\	Ky-	.	.	.	.	.	.	.	.	.	.	.	.	.
.	.	8E-\J	.	8G\J 8c\	.	.	.	.	8E-/	-ri-	.	8c\	-ri-	.	.	.	.	.	.	.	.	.	.	.	.	.
.	.	4E-\	.	4G\ 4c\	.	.	.	.	4E-/	-e	.	4c\	-e	.	.	.	.	.	.	.	.	.	.	.	.	.
4C/	.	4E-\	.	4G\ 4c\	.	4C/	-ri-	.	4E-/	e-	.	4c\	e-	.	.	.	.	.	.	.	.	.	.	.	.	.
=67	=67	=67	=67	=67	=67	=67	=67	=67	=67	=67	=67	=67	=67	=67	=67	=67	=67	=67	=67	=67	=67	=67	=67	=67	=67	=67
4.C/	.	2En\	.	2G/ 2B-/	.	4.C/	-e	.	2En/	-ley-	.	2B-\	-ley-	.	.	.	.	.	.	.	.	.	.	.	.	.
8C/	.	.	.	.	.	8C/	eley-	.	.	.	.	.	.	.	.	.	.	.	.	.	.	.	.	.	.	.
4.C/	.	2F\	.	(>2A-\	.	4.C/	.	.	2F/	-son	.	2A-\	-son	.	.	.	.	.	.	.	.	.	.	.	.	.
8C/	.	.	.	.	.	8C/	-son	.	.	.	.	.	.	.	.	.	.	.	.	.	.	.	.	.	.	.
=68	=68	=68	=68	=68	=68	=68	=68	=68	=68	=68	=68	=68	=68	=68	=68	=68	=68	=68	=68	=68	=68	=68	=68	=68	=68	=68
1C/	.	4.F\	.	4A-\	.	1C/	Ky-	.	4.F/	Ky-	.	4.A-/	Ky-	.	.	.	.	.	.	.	.	.	.	.	.	.
.	.	.	.	4A-\)	.	.	.	.	.	.	.	.	.	.	.	.	.	.	.	.	.	.	.	.	.	.
.	.	8F\	.	.	.	.	.	.	8F/	-ri-	.	8A-/	-ri-	.	.	.	.	.	.	.	.	.	.	.	.	.
.	.	4E-\	.	4G/	.	.	.	.	4E-X/	-e	.	4G/	-e	.	.	.	.	.	.	.	.	.	.	.	.	.
.	.	4D\	.	4F/	.	.	.	.	4D/	e-	.	4F/	e-	.	.	.	.	.	.	.	.	.	.	.	.	.
=69	=69	=69	=69	=69	=69	=69	=69	=69	=69	=69	=69	=69	=69	=69	=69	=69	=69	=69	=69	=69	=69	=69	=69	=69	=69	=69
4.C/	.	2En\	.	2G/	.	4.C/	.	.	2En/	-ley-	.	2G/	-ley-	.	00r	.	00r	.	00r	.	00r	.	00r	.	00r	.
8C/	.	.	.	.	.	8C/	-ri-	.	.	.	.	.	.	.	.	.	.	.	.	.	.	.	.	.	.	.
4C/	.	2F\	.	2A-/	.	4C/	-e	.	2F/	-son	.	[<2A-/	-son	.	.	.	.	.	.	.	.	.	.	.	.	.
4C/	.	.	.	.	.	4C/	eley-	.	.	.	.	.	.	.	.	.	.	.	.	.	.	.	.	.	.	.
=70	=70	=70	=70	=70	=70	=70	=70	=70	=70	=70	=70	=70	=70	=70	=70	=70	=70	=70	=70	=70	=70	=70	=70	=70	=70	=70
*	*	*	*	*	*	*	*	*	*	*	*	*^	*	*	*	*	*	*	*	*	*	*	*	*	*	*
!	!	!	!	!	!	!	!	!	!LO:TX:a:t=1	!	!	!	!	!	!	!	!	!	!	!	!	!	!	!	!	!	!
!	!	!	!	!	!	!	!	!	!LO:TX:a:t=2	!	!	!	!LO:SIC:v=cyfry na pięciolinii	!	!	!	!	!	!	!	!	!	!	!	!	!	!
!	!	!	!	!	!	!	!	!	!LO:SIC:v=cyfry na pięciolinii	!	!	!LO:TX:a:t=1	!LO:TX:a:t=2	!	!	!	!	!	!	!	!	!	!	!	!	!	!
2C/	.	4.F\	.	4.D/ 4.Bn/	.	2C/	.	.	4.F/ 4.D/	Ky-	.	4.Bn/	4.A-\]	Ky-	.	.	.	.	.	.	.	.	.	.	.	.	.
.	.	8F\	.	8D/ 8B/	.	.	.	.	8F/ 8D/	-ri-	.	8B/	8A-\	-ri-	.	.	.	.	.	.	.	.	.	.	.	.	.
4C/	.	4F\	.	4D/ 4B/	.	4C/	-son	.	4G/ 4D/	-e	.	4B/	4G\	-e	.	.	.	.	.	.	.	.	.	.	.	.	.
4C/	.	4F\	.	4D/ 4B/	.	4C/	eley-	.	4A-/ 4D/	e-	.	4B/	4F\	e-	.	.	.	.	.	.	.	.	.	.	.	.	.
=71	=71	=71	=71	=71	=71	=71	=71	=71	=71	=71	=71	=71	=71	=71	=71	=71	=71	=71	=71	=71	=71	=71	=71	=71	=71	=71	=71
!	!	!	!	!	!	!	!	!	!	!	!	!	!LO:SIC:v=1G na środku taktu	!	!	!	!	!	!	!	!	!	!	!	!	!	!
1C/	.	2En/	.	2En/ 2c/	.	1C/	.	.	2G/ 2En/	-ley-	.	2c/	1G\	-ley-	.	.	.	.	.	.	.	.	.	.	.	.	.
*	*	*	*	*	*	*	*	*	*^	*	*	*	*	*	*	*	*	*	*	*	*	*	*	*	*	*	*
.	.	4.c/	.	2G/ 2en/	.	.	.	.	4.c/	2G\	.	.	2en/	.	.	.	.	.	.	.	.	.	.	.	.	.	.	.
.	.	8B-/	.	.	.	.	.	.	8B-/	.	.	.	.	.	.	.	.	.	.	.	.	.	.	.	.	.	.	.
=72	=72	=72	=72	=72	=72	=72	=72	=72	=72	=72	=72	=72	=72	=72	=72	=72	=72	=72	=72	=72	=72	=72	=72	=72	=72	=72	=72	=72
1F\	.	1A-\	.	1A-\ 1f\	.	1F\	.	.	1A-/	1F\	.	.	1f/	1A-\	.	.	.	.	.	.	.	.	.	.	.	.	.	.
=73	=73	=73	=73	=73	=73	=73	=73	=73	=73	=73	=73	=73	=73	=73	=73	=73	=73	=73	=73	=73	=73	=73	=73	=73	=73	=73	=73	=73
0C/	.	0G\ 0c\	.	0G\ 0en\	.	0C/	-son.	.	0c/	0G\	-son	.	0en/	0G\	-son.	.	0r;	.	0r;	.	0r;	.	0r;	.	0r;	.	0r;	.
*	*	*	*	*	*	*	*	*	*v	*v	*	*	*	*	*	*	*	*	*	*	*	*	*	*	*	*	*	*
*	*	*	*	*	*	*	*	*	*	*	*	*v	*v	*	*	*	*	*	*	*	*	*	*	*	*	*	*
==	==	==	==	==	==	==	==	==	==	==	==	==	==	==	==	==	==	==	==	==	==	==	==	==	==	==
*-	*-	*-	*-	*-	*-	*-	*-	*-	*-	*-	*-	*-	*-	*-	*-	*-	*-	*-	*-	*-	*-	*-	*-	*-	*-	*-
!!!system-decoration: [(s1,s2)][(s3,s4,s5)][(s6)][(s7,s8,s9)][(s10,s11,s12)]
!!!RDF**kern: > = above
!!!RDF**kern: < = below
!!!ENC: Berenika Jozajtis
!!!END: 2020-02-13
!!!ENC: Leszek Kubiak
!!!END: 2020-03-10
